;FLAVOR:Marlin
;TIME:496
;Filament used: 0.1722m
;Layer height: 0.2
;MINX:146.885
;MINY:159.175
;MINZ:0.2
;MAXX:187.379
;MAXY:190.386
;MAXZ:14
;Generated with Cura_SteamEngine 4.6.1
M140 S55
M105
M190 S55
M104 S200
M105
M109 S200
M82 ;absolute extrusion mode
M201 X500.00 Y500.00 Z100.00 E5000.00 ;Setup machine max acceleration
M203 X500.00 Y500.00 Z10.00 E50.00 ;Setup machine max feedrate
M204 P500.00 R1000.00 T500.00 ;Setup Print/Retract/Travel acceleration
M205 X8.00 Y8.00 Z0.40 E5.00 ;Setup Jerk
M220 S100 ;Reset Feedrate
M221 S100 ;Reset Flowrate

G28 ;Home
M420 S1 Z2 ;Enable ABL using saved Mesh and Fade Height

G92 E0 ;Reset Extruder
G1 Z2.0 F3000 ;Move Z Axis up
G1 X10.1 Y20 Z0.28 F5000.0 ;Move to start position
G1 X10.1 Y200.0 Z0.28 F1500.0 E15 ;Draw the first line
G1 X10.4 Y200.0 Z0.28 F5000.0 ;Move to side a little
G1 X10.4 Y20 Z0.28 F1500.0 E30 ;Draw the second line
G92 E0 ;Reset Extruder
G1 Z2.0 F3000 ;Move Z Axis up

G92 E0
G92 E0
G1 F1500 E-6.5
;LAYER_COUNT:70
;LAYER:0
M107
G0 F6000 X174.229 Y160.19 Z0.2
;TYPE:SKIRT
G1 F1500 E0
G1 F1200 X175.104 Y160.415 E0.03005
G1 X175.955 Y160.717 E0.06008
G1 X176.771 Y161.089 E0.08991
G1 X177.541 Y161.483 E0.11868
G1 X180.509 Y163.055 E0.23039
G1 X181.102 Y163.379 E0.25286
G1 X181.874 Y163.847 E0.28289
G1 X182.602 Y164.381 E0.31292
G1 X183.28 Y164.977 E0.34294
G1 X183.903 Y165.631 E0.37298
G1 X184.465 Y166.338 E0.40302
G1 X184.963 Y167.092 E0.43308
G1 X185.392 Y167.886 E0.46309
G1 X185.749 Y168.716 E0.49315
G1 X186.032 Y169.574 E0.52319
G1 X186.237 Y170.453 E0.55321
G1 X186.364 Y171.347 E0.58325
G1 X186.398 Y171.807 E0.59859
G1 X186.439 Y172.633 E0.6261
G1 X186.564 Y176.032 E0.73922
G1 X186.579 Y176.677 E0.76068
G1 X186.56 Y177.58 E0.79072
G1 X186.461 Y178.477 E0.82074
G1 X186.284 Y179.363 E0.85079
G1 X186.028 Y180.229 E0.88082
G1 X185.697 Y181.069 E0.91085
G1 X185.293 Y181.877 E0.9409
G1 X184.819 Y182.646 E0.97095
G1 X184.279 Y183.37 E1.00099
G1 X183.677 Y184.043 E1.03102
G1 X183.018 Y184.66 E1.06104
G1 X182.188 Y185.3 E1.0959
G1 X181.577 Y185.723 E1.12062
G1 X181.191 Y185.978 E1.13601
G1 X178.356 Y187.755 E1.24729
G1 X177.762 Y188.115 E1.27039
G1 X176.969 Y188.548 E1.30045
G1 X176.142 Y188.91 E1.33047
G1 X175.286 Y189.197 E1.3605
G1 X174.407 Y189.407 E1.39056
G1 X173.514 Y189.539 E1.42058
G1 X172.612 Y189.591 E1.45063
G1 X171.71 Y189.563 E1.48065
G1 X170.587 Y189.416 E1.51832
G1 X169.344 Y189.18 E1.5604
G1 X168.739 Y189.056 E1.58094
G1 X166.202 Y188.609 E1.66662
G1 X163.703 Y188.242 E1.75063
G1 X161.206 Y187.946 E1.83426
G1 X157.837 Y187.656 E1.94673
G1 X157.052 Y187.558 E1.97304
G1 X156.749 Y187.508 E1.98325
G1 X155.772 Y187.297 E2.0165
G1 X155.533 Y187.233 E2.02473
G1 X154.654 Y186.955 E2.05539
G1 X154.379 Y186.854 E2.06513
G1 X153.546 Y186.505 E2.09517
G1 X152.747 Y186.084 E2.12521
G1 X151.989 Y185.594 E2.15523
G1 X151.276 Y185.039 E2.18528
G1 X150.616 Y184.423 E2.21531
G1 X150.012 Y183.751 E2.24536
G1 X149.471 Y183.029 E2.27537
G1 X148.995 Y182.261 E2.30542
G1 X148.59 Y181.454 E2.33545
G1 X148.257 Y180.614 E2.36551
G1 X148 Y179.749 E2.39552
G1 X147.82 Y178.864 E2.42556
G1 X147.701 Y177.603 E2.46769
G1 X147.69 Y177.257 E2.4792
G1 X147.685 Y176.933 E2.48998
G1 X147.686 Y172.078 E2.65146
G1 X147.696 Y171.389 E2.67437
G1 X147.749 Y170.487 E2.70443
G1 X147.882 Y169.594 E2.73446
G1 X148.093 Y168.716 E2.76449
G1 X148.381 Y167.86 E2.79453
G1 X148.743 Y167.033 E2.82455
G1 X149.178 Y166.241 E2.85461
G1 X149.68 Y165.491 E2.88463
G1 X150.247 Y164.788 E2.91466
G1 X150.874 Y164.138 E2.9447
G1 X151.556 Y163.546 E2.97474
G1 X152.288 Y163.016 E3.0048
G1 X153.064 Y162.554 E3.03484
G1 X153.877 Y162.162 E3.06486
G1 X154.722 Y161.843 E3.0949
G1 X155.592 Y161.6 E3.12494
G1 X156.48 Y161.436 E3.15497
G1 X157.6 Y161.341 E3.19236
G1 X157.996 Y161.33 E3.20554
G1 X160.635 Y161.216 E3.29339
G1 X163.146 Y161.036 E3.37712
G1 X165.671 Y160.782 E3.46153
G1 X168.191 Y160.458 E3.54603
G1 X169.258 Y160.286 E3.58198
G1 X170.636 Y160.082 E3.62831
G1 X171.535 Y159.989 E3.65837
G1 X172.438 Y159.977 E3.68841
G1 X173.338 Y160.044 E3.71843
G1 X174.229 Y160.19 E3.74846
G0 F6000 X174.242 Y159.784
G1 F1200 X175.135 Y160.007 E3.77907
G1 X176.006 Y160.306 E3.8097
G1 X176.953 Y160.733 E3.84425
G1 X177.728 Y161.13 E3.87321
G1 X180.7 Y162.704 E3.98507
G1 X181.293 Y163.028 E4.00754
G1 X182.081 Y163.504 E4.03816
G1 X182.825 Y164.047 E4.0688
G1 X183.519 Y164.652 E4.09942
G1 X184.158 Y165.315 E4.13004
G1 X184.736 Y166.031 E4.16065
G1 X185.251 Y166.794 E4.19127
G1 X185.697 Y167.6 E4.22191
G1 X186.072 Y168.441 E4.25253
G1 X186.372 Y169.311 E4.28314
G1 X186.596 Y170.204 E4.31376
G1 X186.741 Y171.113 E4.34438
G1 X186.797 Y171.787 E4.36687
G1 X186.839 Y172.618 E4.39455
G1 X186.964 Y176.023 E4.50787
G1 X186.979 Y176.668 E4.52933
G1 X186.961 Y177.588 E4.55994
G1 X186.862 Y178.503 E4.59055
G1 X186.685 Y179.407 E4.62119
G1 X186.43 Y180.291 E4.65179
G1 X186.099 Y181.15 E4.68241
G1 X185.694 Y181.978 E4.71306
G1 X185.22 Y182.767 E4.74368
G1 X184.679 Y183.511 E4.77427
G1 X184.075 Y184.206 E4.8049
G1 X183.413 Y184.846 E4.83552
G1 X182.416 Y185.629 E4.87769
G1 X181.805 Y186.052 E4.9024
G1 X181.404 Y186.316 E4.91837
G1 X178.563 Y188.097 E5.0299
G1 X177.969 Y188.457 E5.053
G1 X177.162 Y188.9 E5.08362
G1 X176.319 Y189.27 E5.11424
G1 X175.447 Y189.567 E5.14488
G1 X174.553 Y189.786 E5.17549
G1 X173.643 Y189.927 E5.20612
G1 X172.725 Y189.989 E5.23672
G1 X171.804 Y189.971 E5.26736
G1 X170.513 Y189.809 E5.31063
G1 X169.263 Y189.572 E5.35295
G1 X168.654 Y189.447 E5.37363
G1 X166.151 Y189.007 E5.45815
G1 X163.664 Y188.641 E5.54176
G1 X161.155 Y188.344 E5.6258
G1 X157.803 Y188.055 E5.7377
G1 X156.987 Y187.953 E5.76505
G1 X156.684 Y187.903 E5.77526
G1 X155.668 Y187.683 E5.80984
G1 X155.429 Y187.619 E5.81807
G1 X154.517 Y187.33 E5.84989
G1 X154.242 Y187.229 E5.85963
G1 X153.392 Y186.875 E5.89026
G1 X152.576 Y186.447 E5.9209
G1 X151.801 Y185.951 E5.95151
G1 X151.071 Y185.39 E5.98213
G1 X150.393 Y184.767 E6.01275
G1 X149.772 Y184.088 E6.04336
G1 X149.212 Y183.357 E6.07399
G1 X148.717 Y182.581 E6.1046
G1 X148.292 Y181.764 E6.13523
G1 X147.939 Y180.914 E6.16584
G1 X147.661 Y180.036 E6.19647
G1 X147.46 Y179.138 E6.22708
G1 X147.338 Y178.225 E6.25772
G1 X147.301 Y177.616 E6.27801
G1 X147.29 Y177.27 E6.28952
G1 X147.285 Y176.933 E6.30073
G1 X147.286 Y172.072 E6.46241
G1 X147.296 Y171.383 E6.48533
G1 X147.349 Y170.464 E6.51595
G1 X147.482 Y169.553 E6.54657
G1 X147.694 Y168.657 E6.57719
G1 X147.982 Y167.783 E6.6078
G1 X148.345 Y166.937 E6.63842
G1 X148.78 Y166.125 E6.66906
G1 X149.284 Y165.355 E6.69966
G1 X149.853 Y164.631 E6.73029
G1 X150.483 Y163.959 E6.76093
G1 X151.168 Y163.345 E6.79152
G1 X151.905 Y162.792 E6.82217
G1 X152.686 Y162.305 E6.85278
G1 X153.507 Y161.888 E6.88341
G1 X154.361 Y161.544 E6.91403
G1 X155.241 Y161.275 E6.94464
G1 X156.142 Y161.083 E6.97528
G1 X157.055 Y160.97 E7.00588
G1 X157.589 Y160.941 E7.02366
G1 X158.037 Y160.928 E7.03857
G1 X160.59 Y160.818 E7.12356
G1 X163.111 Y160.637 E7.20763
G1 X165.652 Y160.382 E7.29256
G1 X168.107 Y160.066 E7.37489
G1 X169.2 Y159.89 E7.41171
G1 X170.578 Y159.686 E7.45805
G1 X171.493 Y159.591 E7.48864
G1 X172.414 Y159.576 E7.51928
G1 X173.332 Y159.64 E7.54989
G1 X174.242 Y159.784 E7.58053
G0 F6000 X174.253 Y159.379
G1 F1200 X175.164 Y159.599 E7.6117
G1 X176.054 Y159.896 E7.64291
G1 X177.135 Y160.377 E7.68226
G1 X177.915 Y160.776 E7.7114
G1 X180.892 Y162.353 E7.82345
G1 X181.485 Y162.677 E7.84592
G1 X182.288 Y163.161 E7.87711
G1 X183.047 Y163.712 E7.9083
G1 X183.757 Y164.326 E7.93952
G1 X184.411 Y164.998 E7.97071
G1 X185.006 Y165.723 E8.00191
G1 X185.537 Y166.496 E8.0331
G1 X186 Y167.312 E8.0643
G1 X186.391 Y168.164 E8.09548
G1 X186.709 Y169.046 E8.12667
G1 X186.951 Y169.952 E8.15786
G1 X187.114 Y170.876 E8.18906
G1 X187.197 Y171.766 E8.21879
G1 X187.238 Y172.604 E8.2467
G1 X187.364 Y176.013 E8.36016
G1 X187.379 Y176.658 E8.38162
G1 X187.361 Y177.596 E8.41282
G1 X187.263 Y178.529 E8.44402
G1 X187.086 Y179.45 E8.47522
G1 X186.831 Y180.352 E8.50639
G1 X186.5 Y181.23 E8.5376
G1 X186.096 Y182.076 E8.56878
G1 X185.621 Y182.885 E8.59999
G1 X185.078 Y183.65 E8.63119
G1 X184.473 Y184.366 E8.66237
G1 X183.809 Y185.028 E8.69355
G1 X183.091 Y185.632 E8.72476
G1 X182.643 Y185.958 E8.74319
G1 X182.032 Y186.381 E8.7679
G1 X181.616 Y186.655 E8.78447
G1 X178.77 Y188.439 E8.89619
G1 X178.176 Y188.799 E8.91929
G1 X177.354 Y189.251 E8.95049
G1 X176.497 Y189.63 E8.98166
G1 X175.61 Y189.936 E9.01287
G1 X174.7 Y190.165 E9.04408
G1 X173.775 Y190.315 E9.07524
G1 X172.84 Y190.386 E9.10643
G1 X171.902 Y190.377 E9.13763
G1 X170.968 Y190.288 E9.16884
G1 X170.439 Y190.202 E9.18666
G1 X169.183 Y189.964 E9.22918
G1 X168.576 Y189.839 E9.24979
G1 X166.095 Y189.403 E9.33358
G1 X163.596 Y189.035 E9.41759
G1 X161.107 Y188.741 E9.50095
G1 X157.768 Y188.453 E9.61242
G1 X156.922 Y188.347 E9.64078
G1 X156.619 Y188.297 E9.65099
G1 X155.565 Y188.07 E9.68685
G1 X155.326 Y188.006 E9.69508
G1 X154.379 Y187.706 E9.72812
G1 X154.104 Y187.605 E9.73786
G1 X153.238 Y187.244 E9.76907
G1 X152.406 Y186.811 E9.80027
G1 X151.614 Y186.309 E9.83145
G1 X150.868 Y185.741 E9.86264
G1 X150.172 Y185.111 E9.89386
G1 X149.533 Y184.425 E9.92504
G1 X148.955 Y183.687 E9.95622
G1 X148.442 Y182.902 E9.98741
G1 X147.997 Y182.076 E10.01862
G1 X147.624 Y181.215 E10.04983
G1 X147.326 Y180.326 E10.08101
G1 X147.105 Y179.414 E10.11222
G1 X146.963 Y178.488 E10.14338
G1 X146.902 Y177.629 E10.17202
G1 X146.891 Y177.283 E10.18354
G1 X146.885 Y176.933 E10.19518
G1 X146.886 Y172.066 E10.35706
G1 X146.896 Y171.377 E10.37998
G1 X146.95 Y170.441 E10.41116
G1 X147.083 Y169.513 E10.44234
G1 X147.295 Y168.599 E10.47355
G1 X147.583 Y167.707 E10.50472
G1 X147.947 Y166.842 E10.53594
G1 X148.383 Y166.012 E10.56712
G1 X148.888 Y165.222 E10.59831
G1 X149.459 Y164.478 E10.6295
G1 X150.091 Y163.785 E10.66069
G1 X150.78 Y163.148 E10.6919
G1 X151.52 Y162.572 E10.72309
G1 X152.307 Y162.062 E10.75428
G1 X153.135 Y161.62 E10.7855
G1 X153.997 Y161.251 E10.81669
G1 X154.887 Y160.956 E10.84787
G1 X155.799 Y160.738 E10.87906
G1 X156.727 Y160.599 E10.91027
G1 X157.577 Y160.542 E10.93861
G1 X157.939 Y160.532 E10.95065
G1 X160.578 Y160.418 E11.03851
G1 X163.078 Y160.239 E11.12187
G1 X165.597 Y159.985 E11.20608
G1 X168.057 Y159.669 E11.28857
G1 X169.141 Y159.495 E11.32508
G1 X170.519 Y159.291 E11.37142
G1 X171.452 Y159.193 E11.40262
G1 X172.39 Y159.175 E11.43382
G1 X173.325 Y159.237 E11.46499
G1 X174.253 Y159.379 E11.49621
G1 F1500 E4.99621
;MESH:FrameFixing3b.stl
G0 F6000 X164.269 Y171.066
G0 X163.789 Y172.047
G0 X163.605 Y176.921
;TYPE:WALL-INNER
G1 F1500 E11.49621
G1 F1200 X159.05 Y176.921 E11.64771
G1 X158.78 Y176.907 E11.65671
G1 X158.485 Y176.855 E11.66667
G1 X158.485 Y172.128 E11.82389
G1 X163.213 Y172.128 E11.98114
G1 X163.423 Y172.151 E11.98817
G1 X163.605 Y172.189 E11.99435
G1 X163.605 Y176.921 E12.15174
G0 F6000 X164.005 Y177.321
;TYPE:WALL-OUTER
G1 F1200 X159.048 Y177.321 E12.31661
G1 X158.73 Y177.304 E12.3272
G1 X158.425 Y177.254 E12.33748
G1 X158.127 Y177.169 E12.34779
G1 X158.085 Y177.151 E12.34931
G1 X158.085 Y171.728 E12.52968
G1 X163.239 Y171.728 E12.7011
G1 X163.482 Y171.755 E12.70923
G1 X163.736 Y171.807 E12.71786
G1 X163.968 Y171.877 E12.72592
G1 X164.005 Y171.893 E12.72726
G1 X164.005 Y177.321 E12.90779
G0 F6000 X163.735 Y177.051
G0 X163.495 Y176.531
G0 X163.215 Y176.531
;TYPE:SKIN
G1 F1200 X159.07 Y176.531 E13.04566
G1 X158.875 Y176.521 E13.05215
G1 X158.875 Y172.518 E13.18529
G1 X163.215 Y172.521 E13.32964
G1 X163.215 Y176.531 E13.46301
G0 F6000 X163.495 Y176.531
G0 X163.495 Y173.237
G0 X163.055 Y173.237
G1 F1200 X162.498 Y172.68 E13.48921
G0 F6000 X161.931 Y172.679
G1 F1200 X163.055 Y173.803 E13.54208
G0 F6000 X163.055 Y174.368
G1 F1200 X161.366 Y172.679 E13.62153
G0 F6000 X160.799 Y172.679
G1 F1200 X163.055 Y174.934 E13.72762
G0 F6000 X163.055 Y175.5
G1 F1200 X160.233 Y172.679 E13.86033
G0 F6000 X159.667 Y172.678
G1 F1200 X163.055 Y176.066 E14.0197
G0 F6000 X162.793 Y176.37
G1 F1200 X159.101 Y172.678 E14.19336
G0 F6000 X159.034 Y173.176
G1 F1200 X162.227 Y176.37 E14.34357
G0 F6000 X161.662 Y176.37
G1 F1200 X159.034 Y173.742 E14.46718
G0 F6000 X159.034 Y174.308
G1 F1200 X161.096 Y176.37 E14.56417
G0 F6000 X160.53 Y176.37
G1 F1200 X159.034 Y174.873 E14.63456
G0 F6000 X159.034 Y175.439
G1 F1200 X159.965 Y176.37 E14.67835
G0 F6000 X159.399 Y176.37
G1 F1200 X159.034 Y176.005 E14.69552
G0 F6000 X158.685 Y176.005
G1 F1500 E8.19552
;MESH:FrameFixingNut3b.stl
G0 F6000 X158.595 Y176.005
G0 X158.667 Y172.31
G0 X163.789 Y172.047
G0 X164.87 Y172.047
G0 X167.56 Y172.826
G0 X168.539 Y172.79
G0 X171.353 Y171.55
G0 X172.788 Y171.188
;TYPE:WALL-INNER
G1 F1500 E14.69552
G1 F1200 X172.356 Y171.151 E14.70994
G1 X172.192 Y171.156 E14.7154
G1 X171.812 Y171.185 E14.72808
G1 X171.652 Y171.213 E14.73348
G1 X171.549 Y171.237 E14.737
G1 X171.633 Y171.184 E14.73707
G1 X171.761 Y171.104 E14.73821
G1 X172.046 Y170.925 E14.74411
G1 X172.158 Y170.855 E14.74697
G1 X172.308 Y170.934 E14.75077
G1 X172.435 Y171.001 E14.75319
G1 X172.788 Y171.188 E14.75576
G0 F6000 X174.998 Y172.358
G1 F1200 X175.208 Y172.469 E14.76366
G1 X175.34 Y172.539 E14.76863
G1 X175.634 Y172.694 E14.77969
G1 X175.649 Y173.134 E14.79433
G1 X175.66 Y173.416 E14.80372
G1 X175.545 Y173.138 E14.8054
G1 X175.372 Y172.855 E14.81039
G1 X175.266 Y172.681 E14.81359
G1 X175.165 Y172.552 E14.81623
G1 X174.998 Y172.358 E14.81761
G0 F6000 X173.34 Y171.573
G0 X172.349 Y171.413
G0 X171.353 Y171.55
G0 X171.013 Y171.685
G0 X169.43 Y172.566
G1 F1200 X169.403 Y172.597 E14.81898
G1 X169.31 Y172.732 E14.82443
G1 X169.109 Y173.056 E14.83711
G1 X169.1 Y173.076 E14.83784
G1 X169.038 Y173.2 E14.84245
G1 X168.889 Y173.549 E14.85507
G1 X168.855 Y173.652 E14.85868
G1 X168.852 Y173.551 E14.85877
G1 X168.84 Y173.208 E14.86272
G1 X168.834 Y173.067 E14.86517
G1 X168.829 Y172.943 E14.86795
G1 X168.863 Y172.922 E14.8686
G1 X168.979 Y172.849 E14.87154
G1 X169.269 Y172.667 E14.8759
G1 X169.396 Y172.587 E14.87635
G1 X169.43 Y172.566
G0 F6000 X168.971 Y174.272
G0 X168.947 Y176.153
G1 F1200 X169.022 Y176.342 E14.88311
G1 X169.098 Y176.487 E14.88855
G1 X169.234 Y176.717 E14.89744
G1 X169.291 Y176.812 E14.90113
G1 X169.386 Y176.946 E14.90659
G1 X169.604 Y177.207 E14.9179
G1 X169.326 Y177.061 E14.91941
G1 X169.197 Y176.992 E14.92217
G1 X168.973 Y176.873 E14.92846
G1 X168.972 Y176.823 E14.92924
G1 X168.96 Y176.493 E14.93566
G1 X168.955 Y176.345 E14.93684
G1 X168.947 Y176.153 E14.9373
G0 F6000 X170.304 Y177.499
G0 X171.171 Y177.959
G0 X173.044 Y178.339
G1 F1200 X172.955 Y178.394 E14.94078
G1 X172.765 Y178.514 E14.94826
G1 X172.525 Y178.664 E14.95767
G1 X172.449 Y178.712 E14.96066
G1 X172.264 Y178.614 E14.96762
G1 X172.09 Y178.522 E14.97417
G1 X171.827 Y178.383 E14.98406
G1 X172.146 Y178.414 E14.98616
G1 X172.368 Y178.416 E14.98969
G1 X172.43 Y178.413 E14.99024
G1 X172.69 Y178.396 E14.9946
G1 X172.935 Y178.363 E14.99746
G1 X173.044 Y178.339 E14.99777
G1 F1500 E8.49777
G0 F6000 X175.177 Y176.95
G0 X175.632 Y176.476
G0 X175.9 Y176.084
G0 X175.944 Y175.322
G0 X175.788 Y174.452
G0 X175.684 Y174.41
G0 X175.525 Y174.583
;TYPE:WALL-OUTER
G1 F1500 E14.99777
G1 F1200 X175.507 Y174.365 E15.00504
G1 X175.49 Y174.236 E15.00937
G1 X175.373 Y173.768 E15.02541
G1 X175.187 Y173.32 E15.04155
G1 X174.936 Y172.909 E15.05757
G1 X174.855 Y172.805 E15.06195
G1 X174.625 Y172.537 E15.0737
G1 X174.533 Y172.446 E15.078
G1 X174.264 Y172.216 E15.08977
G1 X174.158 Y172.137 E15.09417
G1 X173.859 Y171.953 E15.10585
G1 X173.742 Y171.889 E15.11028
G1 X173.297 Y171.706 E15.12628
G1 X172.825 Y171.593 E15.14243
G1 X172.345 Y171.552 E15.15845
G1 X172.213 Y171.556 E15.16284
G1 X171.862 Y171.582 E15.17455
G1 X171.732 Y171.605 E15.17894
G1 X171.389 Y171.685 E15.19065
G1 X171.262 Y171.725 E15.19508
G1 X170.937 Y171.858 E15.20676
G1 X170.817 Y171.914 E15.21117
G1 X170.406 Y172.166 E15.2272
G1 X170.036 Y172.479 E15.24332
G1 X169.72 Y172.842 E15.25933
G1 X169.645 Y172.951 E15.26373
G1 X169.459 Y173.251 E15.27547
G1 X169.401 Y173.368 E15.27981
G1 X169.263 Y173.691 E15.29149
G1 X169.221 Y173.818 E15.29594
G1 X169.134 Y174.158 E15.30762
G1 X169.109 Y174.29 E15.31208
G1 X169.07 Y174.769 E15.32807
